!!!!SEGMENT: pl-cz--iii-50--001-017_brykner-jerzy--vesperae-magnificat.krn
!!!cenid: 17xx:859
!!!COM: Brykner, Jerzy
!!!COM-rismID: pe30025739
!!!CDT: 1705-1760
!!!CNT: Polish
!!!OPR: Vesperae
!!!OTL: Magnificat
!!!OMV: 017
!!!PDT:
!!!AGN: Sacred; Vespers
!!!YEC: Copyright 2022 Narodowy Instytut Fryderyka Chopina (https://polishscores.org)
!!!YEM: License CC-BY-4.0 (https://creativecommons.org/licenses/by/4.0)
!!!SMS-siglum: PL-CZ
!!!SMS-shelfmark: III-50
!!!SMS-shelfwork: 001-017 M
!!!SMS-variant:
!!!SMS-altvar:
!!!NIFC-rismSourceID: 300033583
!!!NIFC-rismChildID: 300033583
!!!NIFC-islandoraID: pl-cz:38729
!!!URL-pdf-islandora: https://repozytorium.nifc.pl/islandora/object/pl-cz%3A38729/datastream/PDF/view
!!!URL-scan: https://polish.musicsources.pl/pl/lokalizacje/galeria/rekopisy/6940/1 @EN{Scan on Polish Music Sources Website} @PL{Skany w portalu Dziedzictwo Muzyki Polskiej w otwartym dostępie}
!!!IIIF:
!!!ONB-nifc: UWAGA: części Vesperae: Dixit Dominus, Confitebor, Beatus vir, Laudate pueri,
!!!AIN: 1 empty 1 organ 2 violn 1 vox
!!!key:
**kern	**fba	**kern	**kern	**kern	**text	**kern	**text	**text
*	*	*group2	*group2	*group1	*	*group1	*	*
*part5	*	*part4	*part3	*part2	*	*part1	*	*
*staff5	*	*staff4	*staff3	*staff2	*	*staff1	*	*
*Iorgan	*	*Ivioln	*Ivioln	*Iempty	*	*Ivox	*	*
*I"Organo.	*	*I"Violino Secundo.	*I"Violino Primo.	*I"Baſso.	*	*I"Canto.	*	*
*I'org	*	*I'vl 2	*I'vl 1	*I'B	*	*I'S	*	*
*clefF4	*	*clefG2	*clefG2	*clefF4	*	*clefC1	*	*
*k[]	*	*k[]	*k[]	*k[]	*	*k[]	*	*
*C:	*	*C:	*C:	*C:	*	*C:	*	*
*M4/4	*	*M4/4	*M4/4	*M4/4	*	*M4/4	*	*
*met(c)	*	*met(c)	*met(c)	*met(c)	*	*met(c)	*	*
=1	=1	=1	=1	=1	=1	=1	=1	=1
*	*	*all\right	*	*2\right	*	*2\right	*	*
!LO:TX:b:t=Magnificat.	!	!LO:TX:b:t=Magnificat.	!LO:TX:b:t=Magnificat.	!	!	!	!	!
4C/	.	16g/LL	16ee\LL	[2c\	Ma-	2cc\	Ma-	Nunc
.	.	16e/	16cc\	.	.	.	.	.
.	.	16g/	16ee\	.	.	.	.	.
.	.	16cc/JJ	16gg\JJ	.	.	.	.	.
*2\right	*	*	*	*	*	*	*	*
2c\	3	8ee\L	8ccc\L	.	.	.	.	.
.	.	8cc\J	8gg\J	.	.	.	.	.
*	*	*2\right	*	*	*	*	*	*
.	4 2	2dd\	8aa\L	4c\]	.	4.dd\	-gni-	Di-
.	.	.	8aa\J	.	.	.	.	.
4B\	.	.	8gg\L	8.B\	-gni-	.	.	.
.	.	.	8gg\J	.	.	16cc\	-fi-	-mi-
.	.	.	.	16c\	-fi-	16dd\	-cat	-tis
=2	=2	=2	=2	=2	=2	=2	=2	=2
!LO:TX:a:t=P:problem=mixed beam	!	!	!	!	!	!	!	!
8c\L	.	16cc\LL	8gg\L	4c\	-cat	8ee\	a-	ſer-
.	.	16ee\	.	.	.	.	.	.
8C/	.	16dd\	8gg\J	.	.	16dd\	-ni-	-vum,
.	.	16cc\JJ	.	.	.	16cc\	-ma	.
8F\	.	8dd\L	8aa\L	8F\	a-	8dd\	me-	tu-
8D\J	.	8a\	16aa\L	16D\	-ni-	8a\	-a	-um
.	.	.	16aa\JJ	16D\	-ma	.	.	.
!LO:TX:a:t=P:problem=mixed beam	!	!	!	!	!	!	!	!
8G\L	.	8b\	8bb\L	8G\	me-	8b\L	Do-	Do-
8F\	.	8aa\J	16ccc\L	8F\	-a	16cc\L	.	.
.	.	.	16aa\JJ	.	.	16dd\JJ	.	.
8G\	.	16gg\LL	4bb\	8.G\	Do-	8.b\	.	-mi-
.	.	16ff\	.	.	.	.	.	.
8GG/J	.	16ee\	.	.	.	.	.	.
.	.	16dd\JJ	.	16G\	-mi-	16cc\	-mi-	.
!	!	!LO:LB:g=original	!	!	!	!	!	!
=3	=3	=3	=3	=3	=3	=3	=3	=3
!LO:TX:a:t=P:problem=mixed beam	!	!	!	!	!	!	!	!
8C/L	.	8ee\L	8ccc\L	8C,/	-num,	8cc,\	-num,	-num
8c\	.	8ee\J	8gg\J	8c\	et	8ee\	et	ſe-
8c\	.	16ee\LL	16gg\LL	16c\LL	e-	16ee\LL	e-	-cun-
.	.	16ff\	16gg\	16d\JJ	.	16ff\JJ	.	.
8A\J	.	16ee\	16gg\	16c\LL	-xul-	16ee\LL	-xul-	-dum
.	.	16ff\JJ	16gg\JJ	16d\JJ	.	16ff\JJ	.	.
8B\L	6	16dd\LL	16gg\LL	16B\LL	-ta-	16dd\LL	-ta-	ver-
.	.	16ee\	16gg\	16c\JJ	.	16ee\JJ	.	.
8G\	7	16dd\	16gg\	16B\LL	-vit	16dd\LL	-vit	-bum
.	.	16ee\JJ	16gg\JJ	16c\JJ	.	16ee\JJ	.	.
8A\	7	8cc\L	8gg\L	8A\	Spi-	8cc\	Spi-	tu-
8D\J	7 #	8cc\J	8ff#X\J	16D\	-ri-	16b\	-ri-	-um
.	.	.	.	16D\	-tus	16a\	-tus	in
*	*	*	*	*custos:G	*	*	*	*
!	!	!	!LO:LB:g=original	!LO:PB:g=original	!	!LO:LB:g=original	!	!
=4	=4	=4	=4	=4	=4	=4	=4	=4
!LO:TX:a:t=P:problem=mixed beam	!	!	!	!	!	!	!	!
8G\L	.	8dd\L	8gg\L	8G\	me-	8g\	me-	Pa-
8GG/J	.	8dd\J	8gg\J	8G\	-us	8e\	-(us)	-ce
8r	.	8r	8r	8r	.	8r	.	.
8G\	.	8b/L	8gg\	8G\	in	8dd\	in	qui-
8c\L	.	8g/	16ee\LL	8c\	De-	16e/LL	De-	-a
.	.	.	16dd\	.	.	16f#X/JJ	.	.
8B\	.	8g/J	16ee\	8B\	-o	16g/LL	-o	vi-
.	.	.	16ff#X\JJ	.	.	16a/JJ	.	.
8c\	.	8.cc\L	8ee\L	8c\	ſa-	16b\LL	Sa-	-de-
.	.	.	.	.	.	16cc\JJ	.	.
8A\J	.	.	16aa\L	8A\	-lu-	16dd\LL	-lu-	-runt
.	.	16b\Jk	16gg\JJ	.	.	16ee\JJ	.	.
=5	=5	=5	=5	=5	=5	=5	=5	=5
16d\LL	#	8a/	16ff#X\LL	16d\LL	-ta-	8f#X/	-ta-	ſa-
16c\	.	.	16ee\JJ	16c\	.	.	.	.
16B\	.	4b/	4dd\	16B\	.	4g\	.	-lu-
16A\JJ	.	.	.	16A\JJ	.	.	.	.
8G\L	.	.	.	8G\	.	.	.	.
8E\J	6	8cc\	8gg\	8E\	-ri	8cc\	-ri	-ta-
!LO:LB:g=original	!	!	!	!	!	!	!	!
2D/	6 4	4b/	8gg\L	2D\	me-	(4b\	me-	-re
.	5 #	.	16ff#X\L	.	.	.	.	.
.	.	.	16ee\JJ	.	.	.	.	.
.	.	4a/	4ff#\	.	.	4a\)	.	tu-
=6	=6	=6	=6	=6	=6	=6	=6	=6
!	!	!LO:TX:a:t=P:problem=mixed beam	!	!	!	!	!	!
4GG/	.	8g/L	8gg\L	4GG/	-o.	4g\	-o.	-um
.	.	16gg\L	16gg\L	.	.	.	.	.
.	.	16ff#X\JJ	16ff#X\JJ	.	.	.	.	.
!LO:TX:a:t=Solo.	!	!	!	!	!	!	!	!
4r	.	8gg\L	8gg\L	4r	.	4r	.	.
.	.	16ff#\L	16ff#X\L	.	.	.	.	.
.	.	16ee\JJ	16ee\JJ	.	.	.	.	.
8r	.	8dd\L	8dd\L	2r	.	2r	.	.
8BB/L	.	8b\	8b\	.	.	.	.	.
8C/	.	8cc\	8cc\	.	.	.	.	.
8D/J	#	8dd\J	8dd\J	.	.	.	.	.
!	!	!LO:LB:g=original	!	!	!	!	!	!
=7	=7	=7	=7	=7	=7	=7	=7	=7
!	!	!	!	!LO:TX:a:t=2.	!	!	!	!
4G\	.	4g/	4g/	0r	.	8r	.	.
.	.	.	.	.	.	8dd\	Qui-	quod
8B\L	6	4r	4r	.	.	8g\	-a	pa-
8c\J	.	.	.	.	.	8ee\	res-	-ras-
.	.	.	.	.	.	8qqdd/	.	.
4A\	7	2r	2r	.	.	4cc\	-pe-	.
.	6\	.	.	.	.	.	.	.
!LO:TX:a:t=P:problem=mixed beam	!	!	!	!	!	!	!	!
8G\L	.	.	.	.	.	8b\	-xit	-ti
8C/J	.	.	.	.	.	16r	.	.
.	.	.	.	.	.	16ee\	hu-	an-
!	!	!	!LO:LB:g=original	!	!	!	!	!
=8	=8	=8	=8	=8	=8	=8	=8	=8
.	.	.	.	.	.	8qqdd/	.	.
8AA/L	.	1r	1r	.	.	4cc\	-mi-	-te
8BB/	.	.	.	.	.	.	.	.
.	.	.	.	.	.	8qqb/	.	.
8C/	6	.	.	.	.	4a\	-li-	fa-
8C#X/J	5	.	.	.	.	.	.	.
8D\L	#	.	.	.	.	16f#X/LL	-ta-	-ci-
.	.	.	.	.	.	16e/JJ	.	.
8E\	.	.	.	.	.	8d/	-tem	-em
!	!	!	!	!	!	!LO:LB:g=original	!	!
8F#X\	.	.	.	.	.	8r	.	.
8D\J	.	.	.	.	.	8a\	an-	om-
=9	=9	=9	=9	=9-	=9	=9	=9	=9
!LO:TX:a:t=P:problem=mixed beam	!	!	!	!	!	!	!	!
8G\L	.	2r	2r	2r	.	16b\LL	-cil-	-ni-
.	.	.	.	.	.	16cc#X\JJ	.	.
8F#X\	6	.	.	.	.	8dd\	-lae	.
8E\	7	.	.	.	.	4cc#X\	ſu-	.
8AA/J	7 #	.	.	.	.	.	.	.
4D\	.	4r	4r	4r	.	4dd\	-ae,	-um
8r	.	16r	16r	8r	.	8r	.	.
.	.	16ff#X\LL	16aa\LL	.	.	.	.	.
!LO:TX:a:t=T.	!	!	!	!	!	!	!	!
16d\LL	.	16ff#\	16aa\	16d\	Ec-	16ff#X\	ec-	Po-
16c#X\JJ	.	16ff#\JJ	16aa\JJ	16c#X\	-ce	16ee\	-ce	-pu-
=10	=10	=10	=10	=10	=10	=10	=10	=10
8B\L	.	8ff\L	16dd\LL	8B\	e-	8dd\	e-	-lo-
.	.	.	16ddd\	.	.	.	.	.
16A\L	.	8cc#X\J	16ccc#X\	16A\	-nim	16cc#X\	-nim	-rum
16G\JJ	.	.	16bb\JJ	16G\	ex	16b\	ex	Lu-
16F#X\LL	6	8dd\L	16aa\LL	16F#X\LL	hoc	8a\	hoc	-men
16D\	.	.	16ff#X\	16D\JJ	.	.	.	.
*	*	*	*	*custos:E	*	*	*	*
!	!	!	!	!LO:LB:g=original	!	!	!	!
16E\	.	8dd\J	16gg\	16E\LL	be-	16g\LL	be-	ad
16F#\JJ	.	.	16aa\JJ	16F#\JJ	.	16a\JJ	.	.
16G\LL	.	8dd\L	8bb\L	16G\LL	-a-	16b\LL	-a-	Re-
16A\	.	.	.	16A\JJ	.	16cc#X\JJ	.	.
16B\	.	8dd\	16aa\L	16B\	-tam	16dd\	-tam	-ve-
16c#X\JJ	.	.	16gg\JJ	16c#X\	me	16ee\	me	-la-
!LO:LB:g=original	!	!	!	!	!	!	!	!
!LO:TX:a:t=P:problem=mixed beam	!	!	!	!	!	!	!	!
8d\L	.	8dd\	8ff#X\L	8d\	di-	8ff#X\	di-	-ti-
8D/J	.	8dd\J	[8ff#\J	8D\	-cent	8dd\	-cent	-o-
=11	=11	=11	=11	=11	=11	=11	=11	=11
8d\L	.	8dd\L	8ff#\]	8d\	o(m-	8ff#X\	om-	-nem
8B\	.	8ff#X\	4ccc\	8B\	-n)es	8dd\	-nes	gen-
8G#X\	6 5	8ee\	.	8G#X\	ge-	8dd\	ge-	.
8A\J	#	8ee\J	4aa\	8A\	-ne-	8cc#X\	-ne-	.
8D/L	.	8ff#X\L	.	8D/	-ra-	8dd\	-ra-	.
8GG/J	.	16dd\L	8bb\	8GG/	-ti-	16ee\LL	-ti-	.
.	.	16ee\JJ	.	.	.	16b\JJ	.	.
4AA/	#	4cc#Xt\	16aa\LL	4AA/	-o-	4cc#X\	-o-	-ti-
.	.	.	16gg\	.	.	.	.	.
.	.	.	16ff#X\	.	.	.	.	.
.	.	.	16ee\JJ	.	.	.	.	.
=12	=12	=12	=12	=12	=12	=12	=12	=12
4D\	#	8dd\L	8ff#X\L	4D/	-nes.	4dd\	-nes.	-um
.	.	16dd\L	16dd\L	.	.	.	.	.
.	.	16cc#X\JJ	16cc#X\JJ	.	.	.	.	.
4r	.	8dd\L	8dd\L	4r	.	4r	.	.
.	.	16cc#X\L	16cc#X\L	.	.	.	.	.
.	.	16b\JJ	16b\JJ	.	.	.	.	.
*	*	*custos:a	*	*	*	*	*	*
!	!	!LO:LB:g=original	!LO:LB:g=original	!	!	!LO:LB:g=original	!	!
8r	.	8a/L	8a/L	2r	.	2r	.	.
8F#X\L	.	8f#X/	8f#X/	.	.	.	.	.
8G\	.	8g/	8g/	.	.	.	.	.
8A\J	#	8a/J	8a/J	.	.	.	.	.
=13	=13	=13	=13	=13	=13	=13	=13	=13
!	!	!	!	!LO:TX:a:t=Solo.	!	!LO:TX:a:t=9	!	!
4D/	.	4d/	4d/	4A\	Qui-	00r	.	.
8C#X/L	6	4r	4r	4A\	-a	.	.	.
8AA/J	.	.	.	.	.	.	.	.
8D\L	#	2r	2r	8F#X\	fe-	.	.	.
8E\	.	.	.	8D\	-cit	.	.	.
8F#X\	6	.	.	8r	.	.	.	.
8D\J	.	.	.	16A\	mi-	.	.	.
.	.	.	.	16d\	-hi	.	.	.
=14	=14	=14	=14	=14	=14	=14	=14	=14
8E\L	n6	1r	1r	2cn\	ma-	.	.	.
8D\	.	.	.	.	.	.	.	.
8E\	.	.	.	.	.	.	.	.
8F#X\J	.	.	.	.	.	.	.	.
!LO:TX:a:t=P:problem=mixed beam	!	!	!	!	!	!	!	!
8G\L	.	.	.	8B\	-gna,	.	.	.
8F#X\	6	.	.	8A\	qui	.	.	.
!	!	!	!	!LO:LB:g=original	!	!	!	!
8E\	6\	.	.	8.G\	po-	.	.	.
8AA/J	.	.	.	.	.	.	.	.
.	.	.	.	16F#X\	-tens	.	.	.
=15	=15	=15	=15	=15	=15	=15	=15	=15
4D\	#	8r	8r	4F\	eſt,	.	.	.
.	.	16dd\LL	16dd\LL	.	.	.	.	.
.	.	16cc#X\JJ	16cc#X\JJ	.	.	.	.	.
4r	.	8dd\L	8dd\L	4r	.	.	.	.
.	.	16cc#X\L	16cc#\L	.	.	.	.	.
.	.	16b\JJ	16b\JJ	.	.	.	.	.
8r	.	8a/L	8a/L	2r	.	.	.	.
8F#X\L	.	8f#X/	8f#X/	.	.	.	.	.
8G\	.	8g/	8g/	.	.	.	.	.
8A\J	.	8a/J	8a/J	.	.	.	.	.
!LO:LB:g=original	!	!	!	!	!	!	!	!
=16	=16	=16	=16	=16	=16	=16	=16	=16
4D/	#	4d/	4d/	8r	.	.	.	.
.	.	.	.	8D\	et	.	.	.
8BB/L	6	4r	4r	[4G\	San-	.	.	.
8D/J	#	.	.	.	.	.	.	.
8GG/L	.	2r	2r	16G\LL]	.	.	.	.
.	.	.	.	16F\	.	.	.	.
8AA/	.	.	.	16G\	.	.	.	.
.	.	.	.	16A\JJ	.	.	.	.
8BB/	.	.	.	8G\L	.	.	.	.
8GG/J	.	.	.	8Fn\J	.	.	.	.
=17	=17	=17	=17	=17	=17	=17	=17	=17
4C/	.	8r	8r	4E\	-ctum,	00r	.	.
.	.	16cc\LL	16cc\LL	.	.	.	.	.
.	.	16b\JJ	16b\JJ	.	.	.	.	.
4r	.	8cc\L	8cc\L	4r	.	.	.	.
.	.	16b\L	16b\L	.	.	.	.	.
.	.	16a\JJ	16a\JJ	.	.	.	.	.
8r	.	8g/L	8g/L	2r	.	.	.	.
8E\L	.	8e/	8e/	.	.	.	.	.
8F\	.	8f/	8f/	.	.	.	.	.
8G\J	.	8g/J	8g/J	.	.	.	.	.
=18	=18	=18	=18	=18	=18	=18	=18	=18
8C/L	.	4c/	4c/	8r	.	.	.	.
8D/	.	.	.	8E\	et	.	.	.
8C/	.	4r	4r	[4A\	San-	.	.	.
8BB/J	.	.	.	.	.	.	.	.
!	!	!	!LO:LB:g=original	!	!	!	!	!
8AA/L	#	2r	2r	16A\LL]	.	.	.	.
.	.	.	.	16G\	.	.	.	.
8BB/	.	.	.	16A\	.	.	.	.
.	.	.	.	16B\JJ	.	.	.	.
8C#X/	.	.	.	8A\L	.	.	.	.
8AA/J	.	.	.	8G\J	.	.	.	.
!	!	!LO:LB:g=original	!	!	!	!	!	!
=19	=19	=19	=19	=19	=19	=19	=19	=19
4D\	#	8r	8r	4F#X\	-ctum	.	.	.
.	.	16dd\LL	16dd\LL	.	.	.	.	.
.	.	16cc#X\JJ	16cc#X\JJ	.	.	.	.	.
4r	.	8dd\L	8dd\L	4r	.	.	.	.
.	.	16cc#\L	16cc#\L	.	.	.	.	.
.	.	16b\JJ	16b\JJ	.	.	.	.	.
8r	.	8a/L	8a/L	2r	.	.	.	.
8F#X\L	.	8f#X/	8f#X/	.	.	.	.	.
8G\	.	8g/	8g/	.	.	.	.	.
8A\J	#	8a/J	8a/J	.	.	.	.	.
!	!	!	!	!LO:LB:g=original	!	!	!	!
=20	=20	=20	=20	=20	=20	=20	=20	=20
4D\	#	4d/	4d/	8r	.	.	.	.
*	*	*	*	*	*ij	*	*	*
.	.	.	.	8D\	et	.	.	.
8r	.	4r	4r	8F#X\	San-	.	.	.
8D\	.	.	.	8A\	-ctum	.	.	.
*	*	*	*	*	*Xij	*	*	*
8E\L	6	2r	2r	4.c\	No-	.	.	.
8D\	.	.	.	.	.	.	.	.
8E\	.	.	.	.	.	.	.	.
8F#X\J	.	.	.	16B\LL	.	.	.	.
.	.	.	.	16A\JJ	.	.	.	.
=21	=21	=21	=21	=21	=21	=21	=21	=21
!LO:TX:a:t=P:problem=mixed beam	!	!	!	!	!	!	!	!
8G\L	.	2r	2r	8B\	.	1r	.	.
8C/	.	.	.	16A\LL	-men	.	.	.
.	.	.	.	16G\JJ	.	.	.	.
8D/	#	.	.	4F#X\	e-	.	.	.
8DD/J	.	.	.	.	.	.	.	.
!LO:LB:g=original	!	!	!	!	!	!	!	!
4GG/	.	8r	8r	4G\	-jus.	.	.	.
.	.	16gg\LL	16gg\LL	.	.	.	.	.
.	.	16ff#X\JJ	16ff#X\JJ	.	.	.	.	.
4r	.	8gg\L	8gg\L	4r	.	.	.	.
.	.	16ff#X\L	16ff#\L	.	.	.	.	.
.	.	16ee\JJ	16ee\JJ	.	.	.	.	.
=22	=22	=22	=22	=22	=22	=22-	=22	=22
!	!	!	!	!LO:TX:a:t=5.	!	!	!	!
8r	.	8dd\L	8dd\L	00r	.	2r	.	.
8BB/L	.	8b\	8b\	.	.	.	.	.
8C/	.	8cc\	8cc\	.	.	.	.	.
8D/J	#	8dd\J	8dd\J	.	.	.	.	.
2GG/	-	4g/	4g/	.	.	8b-X\	Et	Lu-
.	.	.	.	.	.	8b-\	mi-	-men
.	.	4r	4r	.	.	8b-\	-se-	ad
.	.	.	.	.	.	16cc\LL	-ri-	Re-
.	.	.	.	.	.	16dd\JJ	.	.
=23	=23	=23	=23	=23	=23	=23	=23	=23
2AA/	6\	0r	0r	.	.	4.f#X/	-cor-	-ve-
.	.	.	.	.	.	16f#/	-di-	-la-
.	.	.	.	.	.	16f#/	-a	-ti-
4BB-X/	6	.	.	.	.	8g/	e-	-o-
.	.	.	.	.	.	8g/	-jus	-nem
4G\	-6	.	.	.	.	8r	.	.
.	.	.	.	.	.	16ee-X\	à	ad
.	.	.	.	.	.	16ee-\	pro-	.
=24	=24	=24	=24	=24	=24	=24	=24	=24
!	!	!	!	!	!	!LO:SIC:v:s=ee-	!	!
4F#X\	6	.	.	.	.	8ee\	-ge-	re-
.	.	.	.	.	.	16dd\	-ni-	-ve-
.	.	.	.	.	.	16cc\	-e	-la-
4Fn\	n4 2	.	.	.	.	8bn\	in	-ti-
.	.	.	.	.	.	8b\	pro-	-o-
2E-X\	6	.	.	.	.	8cc\	-ge-	-nem
.	.	.	.	.	.	16cc\	-ni-	.
.	.	.	.	.	.	16cc\	-es	.
.	.	.	.	.	.	8r	.	.
.	.	.	.	.	.	8cc\	ti-	ad
=25	=25	=25	=25	=25	=25	=25	=25	=25
4F\	-6	1r	1r	.	.	8.dd-X\	-men-	Re-
.	.	.	.	.	.	16cc\	-ti-	-ve
!	!	!	!	!	!	!LO:TX:b:t=P:problem=podwójny przecinek jako łamanie sylab między systemami	!	!
!	!	!	!	!	!	!LO:LB:g=original	!	!
8E-X\L	6	.	.	.	.	8cc\	-bus	ti-
*	*	*	*	*	*	*	*ij	*
8F\J	.	.	.	.	.	8ddn\	ti-	-o-
!LO:TX:a:t=P:problem=mixed beam	!	!	!	!	!	!	!	!
8G\L	n	.	.	.	.	8bn\	-men-	-nem
8C/J	.	.	.	.	.	16cc\	-ti-	gen-
.	.	.	.	.	.	16a\	-bus	-ti-
*	*	*	*	*	*	*	*Xij	*
4GG/	.	.	.	.	.	4b\	e-	.
=26	=26	=26	=26	=26	=26	=26	=26	=26
4C/	.	8r	8r	1r	.	4cc\	-um.	-um
.	.	16cc\LL	16cc\LL	.	.	.	.	.
.	.	16b\JJ	16b\JJ	.	.	.	.	.
4r	.	8cc\L	8cc\L	.	.	4r	.	.
.	.	16b\L	16b\L	.	.	.	.	.
.	.	16a\JJ	16a\JJ	.	.	.	.	.
*	*	*custos:g	*	*	*	*	*	*
!	!	!LO:LB:g=original	!LO:LB:g=original	!	!	!	!	!
8r	.	8g/L	8g/L	.	.	2r	.	.
8En\L	.	8e-X/	8e-X/	.	.	.	.	.
8F\	.	8f/	8f/	.	.	.	.	.
!	!	!LO:TX:a:t=P:problem=pojedyncza kreska taktowa	!LO:TX:a:t=P:problem=pojedyncza kreska taktowa	!	!	!	!	!
8G\J	.	8g/J	8g/J	.	.	.	.	.
=27||	=27||	=27||	=27||	=27||	=27||	=27||	=27||	=27||
*M3/4	*	*M3/4	*M3/4	*M3/4	*	*M3/4	*	*
!	!	!	!LO:TX:a:t=P:problem=mixed beam	!	!	!	!	!
4C/	.	8c/	8c/L	4C/	Fe-	(8g\L	Fe-	Lu-
.	.	4cc\	16een\L	.	.	8cc\J)	.	.
.	.	.	16ff\JJ	.	.	.	.	.
!LO:TX:a:t=T&colon;	!	!	!	!	!	!	!	!
4E/	.	.	8gg\L	4E\	-cit	(8cc\L	-cit	-men.
.	.	4ee\	8ccc\	.	.	8ee\J)	.	.
4G\	.	.	8dd\	4G\	po-	(8ee\L	po-	.
.	.	[8gg\	8bb\J	.	.	8gg\J)	.	.
=28	=28	=28	=28	=28	=28	=28	=28	=28
8c\L	.	16gg\LL]	8ccc\L	8.c\	-ten-	16gg\LL	-ten-	.
.	.	16ff\	.	.	.	16ff\JJ	.	.
8C/	.	16ee\	8cc\J	.	.	16ee\LL	-ti-	.
.	.	16dd\JJ	.	16c\	-ti-	16dd\JJ	.	.
8E/	.	8cc\L	8gg\L	8E\	-am	8cc\	-am	.
8C/J	.	8ee\J	16ff\L	8C/	in	8ee\	in	.
.	.	.	16ee\JJ	.	.	.	.	.
!LO:LB:g=original	!	!	!	!	!	!	!	!
8F\L	6	8dd\L	8aa\L	8F\	bra-	8dd\	bra-	.
8G\J	.	16cc\L	16gg\L	16G\	-chi-	16cc\	-chi-	.
.	.	16b\JJ	16ff\JJ	16G\	-o	16b\	-o	.
=29	=29	=29	=29	=29	=29	=29	=29	=29
4C/	.	8cc\L	4ee\	8C/	ſu-	8cc\	ſu-	.
.	.	8cc\J	.	8C/	-o	16cc\	-o	.
.	.	.	.	.	.	16cc\	dis-	.
8r	.	4ff\	8r	8r	.	4ff\	-per-	.
8A\	.	.	8cc\	8A\	dis-	.	.	.
!	!	!	!	!LO:TX:b:t=P:problem=podwójny przecinek jako łamanie sylab między systemami	!	!	!	!
!	!	!	!	!LO:LB:g=original	!	!	!	!
4d\	.	4dd\	4ff\	4d\	-per-	4dd\	-sit	.
=30	=30	=30	=30	=30	=30	=30	=30	=30
4B\	.	8r	4dd\	4B\	-sit	8r	.	.
.	.	8dd\	.	.	.	8dd\	ſu-	.
8r	.	4gg\	8r	8r	.	4gg\	-per-	.
8B\	.	.	8dd\	8B\	ſu-	.	.	.
4e\	.	4ee\	4gg\	4e\	-per-	4ee\	-bos	.
!	!	!	!	!	!	!LO:LB:g=original	!	!
=31	=31	=31	=31	=31	=31	=31	=31	=31
8c\	.	8r	8ee\	8c\	-bos	8r	.	.
4A\	6	4ff\	4ccc\	4A\	me(n)-	4ff\	men-	.
8G\	6	8ee\	8bb\	8G\	-te.	8ee\	-te	.
8F\L	6	4.dd\	8aa\L	8F\L	cor-	[<4dd\	cor-	.
16E\L	6	.	16gg\L	16E\L	.	.	.	.
16F\JJ	.	.	16aa\JJ	16F\JJ	.	.	.	.
!	!	!	!LO:LB:g=original	!	!	!	!	!
=32	=32	=32	=32	=32	=32	=32	=32	=32
8G\L	.	.	8bb\L	8G\	.	8dd\]	.	.
8c\J	.	16cc\LL	8ccc\J	8c\	-dis	16cc\LL	-dis	.
.	.	16dd\JJ	.	.	.	16dd\JJ	.	.
4G\	4	4cc\	4ee\	4G\	ſu-	(4cc\	ſu-	.
4GG/	3	4b/	4dd\	4GG/	.	4b\)	.	.
=33	=33	=33	=33	=33	=33	=33	=33	=33
4C/	.	16cc\LL	16cc\LL	4C/	-i.	4cc\	-i.	.
.	.	16dd\	16dd\	.	.	.	.	.
.	.	16ee\	16ee\	.	.	.	.	.
.	.	16ff\JJ	16ff\JJ	.	.	.	.	.
!LO:TX:a:t=Solo.	!	!LO:TX:a:t=P:problem=mixed beam	!	!	!	!	!	!
8r	.	8gg\L	8gg\L	4r	.	4r	.	.
8A\L	.	8e/J	8cc\J	.	.	.	.	.
8F\	6	8f/L	8dd\L	4r	.	4r	.	.
8G\J	.	16e/L	16cc\L	.	.	.	.	.
.	.	16d/JJ	16b\JJ	.	.	.	.	.
=34	=34	=34	=34	=34	=34	=34	=34	=34
!	!	!	!	!LO:TX:a:t=1.	!	!LO:TX:a:t=10.	!	!
!	!	!	!	!	!	!LO:N:vis=00	!	!
8A\L	.	4e/	4cc\	2.r	.	0.r	.	.
16G\L	.	.	.	.	.	.	.	.
16F\JJ	.	.	.	.	.	.	.	.
8E\L	6	8r	8r	.	.	.	.	.
8C\	.	8c/	8e/	.	.	.	.	.
8F\	6	8d/L	8f/L	.	.	.	.	.
8G\J	.	16c/L	16e/L	.	.	.	.	.
.	.	16B/JJ	16d/JJ	.	.	.	.	.
=35	=35	=35	=35	=35	=35	=35	=35	=35
4C/	.	4c/	4e/	8r	.	.	.	.
.	.	.	.	8c\	De-	.	.	.
4.G\	.	4r	4r	8.B\	-po-	.	.	.
.	.	.	.	16A\	-su-	.	.	.
.	.	4r	4r	8G\	-it	.	.	.
8F\	.	.	.	8A\	po-	.	.	.
!LO:PB:g=original	!	!	!	!	!	!	!	!
=36	=36	=36	=36	=36	=36	=36	=36	=36
4.E\	6	2.r	2.r	16G\LL	-ten-	.	.	.
.	.	.	.	16F\	.	.	.	.
.	.	.	.	16E\	.	.	.	.
.	.	.	.	16D\JJ	.	.	.	.
!	!	!	!	!LO:TX:b:t=P:problem=podwójny przecinek jako łamanie sylab między systemami	!	!	!	!
!	!	!	!	!LO:LB:g=original	!	!	!	!
.	.	.	.	8C/	-tes	.	.	.
8F\	.	.	.	8A\	de	.	.	.
!LO:TX:a:t=P:problem=mixed beam	!	!	!	!LO:TX:a:t=t.	!	!	!	!
8G\L	.	.	.	4BB/	ſe-	.	.	.
8GG/J	.	.	.	.	.	.	.	.
=37	=37	=37	=37	=37	=37	=37	=37	=37
4C/	.	16cc\LL	16cc\LL	4C/	-de,	.	.	.
.	.	16dd\	16dd\	.	.	.	.	.
.	.	16ee\	16ee\	.	.	.	.	.
.	.	16ff\JJ	16ff\JJ	.	.	.	.	.
!	!	!LO:TX:a:t=P:problem=mixed beam	!	!	!	!	!	!
8r	.	8gg\L	8gg\L	4r	.	.	.	.
8A\L	.	8e/J	8cc\J	.	.	.	.	.
8F\	6	8f/L	8dd\L	4r	.	.	.	.
8G\J	.	16e/L	16cc\L	.	.	.	.	.
.	.	16d/JJ	16b\JJ	.	.	.	.	.
=38	=38	=38	=38	=38	=38	=38	=38	=38
!	!	!	!	!LO:TX:a:t=1.	!	!	!	!
!	!	!	!	!	!	!LO:N:vis=00	!	!
8A\L	.	4e/	4cc\	2.r	.	0.r	.	.
16G\L	.	.	.	.	.	.	.	.
16F\JJ	.	.	.	.	.	.	.	.
!LO:TX:a:t=P:problem=mixed beam	!	!	!	!	!	!	!	!
8E\L	6	8r	8r	.	.	.	.	.
8F\	.	8c/	8e/	.	.	.	.	.
*	*	*custos:d	*	*	*	*	*	*
!	!	!LO:LB:g=original	!	!	!	!	!	!
8G\	.	8d/L	8f/L	.	.	.	.	.
8GG/J	.	16c/L	16e/L	.	.	.	.	.
.	.	16B/JJ	16d/JJ	.	.	.	.	.
!	!	!	!LO:LB:g=original	!	!	!	!	!
=39	=39	=39	=39	=39	=39	=39	=39	=39
4C/	.	4c/	4e/	8r	.	.	.	.
.	.	.	.	8E\	et	.	.	.
4G#X\	6	4r	4r	8B\	ex-	.	.	.
.	.	.	.	8E\	-al-	.	.	.
8A\L	.	4r	4r	8.c\L	-ta-	.	.	.
8G#\J	.	.	.	.	.	.	.	.
.	.	.	.	16B\Jk	.	.	.	.
=40	=40	=40	=40	=40	=40	=40	=40	=40
!	!	!LO:N:vis=0	!LO:N:vis=0	!	!	!	!	!
4.F\	.	1.r	1.r	16A\LL	.	.	.	.
.	.	.	.	16B\	.	.	.	.
.	.	.	.	16c\	.	.	.	.
.	.	.	.	16A\JJ	.	.	.	.
.	.	.	.	8.d\L	.	.	.	.
8E\	.	.	.	.	.	.	.	.
.	.	.	.	16c\Jk	.	.	.	.
4D\	.	.	.	16B\LL	.	.	.	.
.	.	.	.	16A\	.	.	.	.
.	.	.	.	16G#X\	.	.	.	.
.	.	.	.	16F#X\JJ	.	.	.	.
=41	=41	=41	=41	=41	=41	=41	=41	=41
8E\L	#	.	.	8G#X\	.	.	.	.
8A\J	.	.	.	8A\	-vit	.	.	.
4E\	4	.	.	(4A\	hu-	.	.	.
4EE/	3	.	.	8.G#X\)	.	.	.	.
.	.	.	.	16A\	-mi-	.	.	.
*	*	*	*	*custos:A	*	*	*	*
!	!	!	!	!LO:TX:b:t=P:problem=podwójny przecinek jako łamanie sylab między systemami	!	!	!	!
!	!	!	!	!LO:LB:g=original	!	!	!	!
=42	=42	=42	=42	=42	=42	=42	=42	=42
!	!	!	!	!	!	!LO:N:vis=0	!	!
4AA/	.	16a/LL	16a\LL	4A\	-les.	1.r	.	.
.	.	16b/	16b\	.	.	.	.	.
.	.	16cc/	16cc\	.	.	.	.	.
.	.	16dd/JJ	16dd\JJ	.	.	.	.	.
!	!	!LO:TX:a:t=P:problem=mixed beam	!	!	!	!	!	!
8r	.	8ee\L	8ee\L	4r	.	.	.	.
8F\L	.	8c/	8a\J	.	.	.	.	.
8D\	6	8d/	8b/L	4r	.	.	.	.
8E\J	#	8B/J	16a/L	.	.	.	.	.
.	.	.	16g#X/JJ	.	.	.	.	.
=43	=43	=43	=43	=43	=43	=43	=43	=43
!	!	!	!	!LO:TX:a:t=10.	!	!	!	!
!	!	!	!	!LO:N:vis=00	!	!	!	!
8F\L	.	4c/	4a/	0.r	.	.	.	.
16E\L	.	.	.	.	.	.	.	.
16D\JJ	.	.	.	.	.	.	.	.
!LO:LB:g=original	!	!	!	!	!	!	!	!
8C/L	6	8r	8r	.	.	.	.	.
8AA/	.	8A/L	8c/	.	.	.	.	.
8D/	6	8B/	8d/L	.	.	.	.	.
8E/J	#	8G#X/J	16c/L	.	.	.	.	.
.	.	.	16B/JJ	.	.	.	.	.
=44	=44	=44	=44	=44	=44	=44	=44	=44
4AA/	.	4A/	4c/	.	.	4r	.	.
4C/	6	4r	4r	.	.	8r	.	.
.	.	.	.	.	.	8ee\	E-	Lu-
4AA/	.	4r	4r	.	.	8ee\	-ſu-	-men.
.	.	.	.	.	.	8ff\	-ri-	.
=45	=45	=45	=45	=45	=45	=45	=45	=45
!	!	!LO:N:vis=00	!LO:N:vis=00	!	!	!	!	!
4.BB/	6\	0.r	0.r	.	.	8dd\	-en-	.
.	.	.	.	.	.	8dd\	-tes	.
.	.	.	.	.	.	8r	.	.
8C/	.	.	.	.	.	16ff\LL	im-	.
.	.	.	.	.	.	16ee\JJ	.	.
4D/	.	.	.	.	.	16dd\LL	-ple-	.
.	.	.	.	.	.	16cc\JJ	.	.
.	.	.	.	.	.	16b\LL	-vit	.
.	.	.	.	.	.	16a\JJ	.	.
=46	=46	=46	=46	=46	=46	=46	=46	=46
8E\L	#	.	.	.	.	8g#X/	bo-	.
8F#X\	.	.	.	.	.	8e/	-nis	.
8G#X\	6	.	.	.	.	8r	.	.
8E\	.	.	.	.	.	8e/	et	.
8A\	.	.	.	.	.	8cc\	di-	.
8G#X\J	.	.	.	.	.	8b\	-vi-	.
=47	=47	=47	=47	=47	=47	=47	=47	=47
!	!	!	!	!LO:N:vis=00	!	!	!	!
8A\L	.	.	.	0.r	.	4cc\	-tes	.
8Gn\	.	.	.	.	.	.	.	.
!	!	!	!	!	!	!LO:LB:g=original	!	!
8F#X\	6	.	.	.	.	16r	.	.
.	.	.	.	.	.	16f#X/LL	di-	.
8D\	.	.	.	.	.	16g/	.	.
.	.	.	.	.	.	16a/JJ	.	.
8G\	.	.	.	.	.	8b\L	-mi-	.
8F#\J	.	.	.	.	.	8a\J	.	.
=48	=48	=48	=48	=48	=48	=48	=48	=48
8G\L	.	.	.	.	.	4b\	-sit	.
8F#X\	.	.	.	.	.	.	.	.
8E\	.	.	.	.	.	16r	.	.
*	*	*	*	*	*	*	*ij	*
.	.	.	.	.	.	16e/LL	di-	.
8C\	.	.	.	.	.	16f#X/	.	.
.	.	.	.	.	.	16g/JJ	.	.
8F#\	.	.	.	.	.	8a\L	-mi-	.
8E\J	.	.	.	.	.	8g\J	.	.
=49	=49	=49	=49	=49	=49	=49	=49	=49
8F#X\L	6\	2.r	2.r	.	.	4.a\	-sit	.
*	*	*	*	*	*	*	*Xij	*
8E\	.	.	.	.	.	.	.	.
8D#X\	6	.	.	.	.	.	.	.
8E\J	.	.	.	.	.	16e/LL	i-	.
.	.	.	.	.	.	16fn/JJ	.	.
4BB/	4	.	.	.	.	4f/	-na-	.
.	#	.	.	.	.	.	.	.
=50	=50	=50	=50	=50	=50	=50	=50	=50
4E\	.	16ee\LL	16ee\LL	.	.	4e/	-nes.	.
.	.	16ff#X\	16ff#X\	.	.	.	.	.
.	.	16gg\	16gg\	.	.	.	.	.
.	.	16aa\JJ	16aa\JJ	.	.	.	.	.
!LO:LB:g=original	!	!LO:TX:a:t=P:problem=mixed beam	!	!	!	!	!	!
8r	.	8bb\L	8bb\L	.	.	4r	.	.
8c\L	.	8g/	8ee\	.	.	.	.	.
8A\	6\	8a/	8ff#X\	.	.	4r	.	.
8B\J	#	8f#X/J	8dd#X\J	.	.	.	.	.
=51	=51	=51	=51	=51	=51	=51	=51	=51
!	!	!	!	!LO:N:vis=0	!	!LO:TX:a:t=1.	!	!
8c\L	.	4g/	4ee\	1.r	.	2.r	.	.
16B\L	.	.	.	.	.	.	.	.
16A\JJ	.	.	.	.	.	.	.	.
!LO:TX:a:t=P:problem=mixed beam	!	!LO:LB:g=original	!	!	!	!	!	!
8G\L	6	8r	8r	.	.	.	.	.
8A\	.	8e/L	8g/L	.	.	.	.	.
8B\	#	8f#X/	8a/	.	.	.	.	.
8BB/J	.	8d#X/J	8f#X/J	.	.	.	.	.
=52	=52	=52	=52	=52	=52	=52	=52	=52
4E\	.	4e/	4g/	.	.	4r	.	.
4G\	.	4r	4r	.	.	8r	.	.
.	.	.	.	.	.	8b\	Suſ-	Lu-
4E\	.	4r	4r	.	.	8b\	-ce-	-men
!	!	!	!LO:TX:b:i:t=Voltio&colon;	!	!	!	!	!
.	.	.	.	.	.	8ee\	-pit	.
!	!	!	!LO:PB:g=original	!	!	!	!	!
=53	=53	=53	=53	=53	=53	=53	=53	=53
!	!	!LO:N:vis=00	!LO:N:vis=00	!	!	!	!	!
4A\	.	0.r	0.r	4r	.	8.cc\	Is-	Lu-
.	.	.	.	.	.	16b\	-rȧ-	-men
4F#X\	6	.	.	4.A\	pu-	4a\	-ėl	.
4D\	.	.	.	.	.	4r	.	.
.	.	.	.	16d\	-e-	.	.	.
.	.	.	.	16c\	-rum	.	.	.
=54	=54	=54	=54	=54	=54	=54	=54	=54
4G\	.	.	.	8B\L	ſu-	4r	.	.
.	.	.	.	8A\J	.	.	.	.
4B\	.	.	.	4G\	-um	4dd\	re-	Lu-
4G\	.	.	.	4r	.	4dd\	-cor-	-men
=55	=55	=55	=55	=55	=55	=55	=55	=55
!	!	!	!	!LO:TX:a:t=1.	!	!	!	!
4C/	.	.	.	2.r	.	8dd\L	-da-	.
.	.	.	.	.	.	16cc\L	.	.
.	.	.	.	.	.	16b\JJ	.	.
!	!	!	!	!	!	!LO:TX:b:t=P:problem=podwójny przecinek jako łamanie sylab między systemami	!	!
!	!	!	!	!	!	!LO:LB:g=original	!	!
4E\	.	.	.	.	.	8cc,\	-t(us)	.
.	.	.	.	.	.	8cc\	mi-	ad
4C/	.	.	.	.	.	8ee\	-se-	Re-
.	.	.	.	.	.	8cc\	-ri-	-ve-
=56	=56	=56	=56	=56	=56	=56	=56	=56
8r	.	.	.	8r	.	4.ff\	-cor-	-la-
8G\L	7	.	.	8B\	mi-	.	.	.
8B\	.	.	.	8d\	-se-	.	.	.
8G\J	.	.	.	8B\	-ri-	16ee\LL	.	-ti-
.	.	.	.	.	.	16dd\JJ	.	-o-
8c\L	.	.	.	8c\L	-cor-	[4ee-X\	.	-nem
8A-X\J	.	.	.	8A-X\J	.	.	.	.
=57	=57	=57	=57	=57	=57	=57	=57	=57
!	!	!	!	!	!	!LO:N:xstem:cue	!	!
8F\L	-7	2.r	2.r	8F\	.	8ee-\]	.	.
8F#X\J	6	.	.	16F#X\	-di-	16dd\	-di-	gen-
.	5	.	.	16F#\	-ae	16cc\	-a	-ti-
4G\	4	.	.	2G\	ſu-	(4cc\	ſu-	.
.	3	.	.	.	.	.	.	.
4GG/	.	.	.	.	.	4b\)	.	.
!LO:LB:g=original	!	!	!	!	!	!	!	!
=58	=58	=58	=58	=58	=58	=58	=58	=58
4C/	.	16cc\LL	16cc\LL	4C/	-ae.	4cc\	-ae.	-um
.	.	16dd\	16dd\	.	.	.	.	.
.	.	16ee\	16ee\	.	.	.	.	.
.	.	16ff\JJ	16ff\JJ	.	.	.	.	.
!	!	!LO:TX:a:t=P:problem=mixed beam	!	!	!	!	!	!
8r	.	8gg\L	8gg\L	4r	.	4r	.	.
8A\L	.	8e/	8cc\J	.	.	.	.	.
8F\	6	8f/	8dd\L	4r	.	4r	.	.
8G\J	.	8d/J	8b\J	.	.	.	.	.
!	!	!	!	!LO:LB:g=original	!	!	!	!
=59	=59	=59	=59	=59	=59	=59	=59	=59
!	!	!	!	!LO:TX:a:t=1.	!	!LO:TX:a:t=1.	!	!
8A\L	.	4e/	4cc\	2.r	.	2.r	.	.
16G\L	.	.	.	.	.	.	.	.
16F\JJ	.	.	.	.	.	.	.	.
8E\L	6	8r	8r	.	.	.	.	.
8C\	.	8c/L	8e/L	.	.	.	.	.
8F\	.	8d/	8f/	.	.	.	.	.
8G\J	.	8B/J	8d/J	.	.	.	.	.
=60	=60	=60	=60	=60	=60	=60	=60	=60
4C/	.	4c/	4e/	4r	.	4r	.	.
8r	.	8r	8r	8r	.	8r	.	.
!LO:TX:a:t=Tutti.	!	!	!	!	!	!	!	!
8C/L	.	8gg\L	8ccc\L	8C/	Si-	8ee\	Si-	.
8E/	.	8gg\	8ccc\	8E\	-cit	8ee\	-cut	.
8G/J	.	8gg\J	8bb\J	8G\	lo-	8dd\	lo-	.
=61	=61	=61	=61	=61	=61	=61	=61	=61
4c\	.	8gg\L	8ccc\L	8.c\	-cu-	8.ee\	-cu-	.
.	.	8gg\	8ccc\J	.	.	.	.	.
.	.	.	.	16c\	-tus	16ee\	-tus	.
8B\L	6	8dd\	8gg\L	8B\	e(st)	8dd\	eſt	.
8c\	.	8ee\	8gg\	8c\	ad	8ee\	ad	.
8B\	.	8dd\	8gg\	8B\	pa-	8dd\	pa-	.
8A\J	.	8cc\J	8gg\J	8A\	-tres	8cc\	-tres	.
=62	=62	=62	=62	=62	=62	=62	=62	=62
4G\	.	4b/	4gg\	(4G\	no-	(4b\	noſ-	.
2A\	7	2cc\	4gg\	2A\)	.	2cc\)	.	.
.	6\	.	4ff#X\	.	.	.	.	.
=63	=63	=63	=63	=63	=63	=63	=63	=63
4G\	.	16b/LL	16g/LL	4G\	-ſtros,	4b\	-tros	.
.	.	16a/	16a/	.	.	.	.	.
.	.	16b/	16b/	.	.	.	.	.
.	.	16cc/JJ	16cc/JJ	.	.	.	.	.
!	!	!LO:TX:a:t=P:problem=mixed beam	!	!	!	!LO:LB:g=original	!	!
8r	.	8dd\L	8dd/L	4r	.	4r	.	.
8E\L	.	8B/	8g/	.	.	.	.	.
8C\	6	8c/	8a/	4r	.	4r	.	.
8D\J	#	8A/J	8f#X/J	.	.	.	.	.
!	!	!	!LO:LB:g=original	!	!	!	!	!
=64	=64	=64	=64	=64	=64	=64	=64	=64
4GG/	.	4B/	4g/	4r	.	4r	.	.
8G\L	.	8gg\L	8bb\L	8.G\	A-	8.dd\	A-	.
8G\	.	8gg\	8bb\	.	.	.	.	.
.	.	.	.	16G\	-bra-	16dd\	-bra-	.
8F\	.	8gg\	8bb\	8F\	-ha(m),	8dd\	-ha(m),	.
8F\J	.	8gg\J	8bb\J	8F\	et	8dd\	et	.
!LO:LB:g=original	!	!LO:LB:g=original	!	!	!	!	!	!
=65	=65	=65	=65	=65	=65	=65	=65	=65
4E\	#	8gg#X\L	8bb\L	4.E\	ſe-	4.dd\	ſe-	.
.	.	8gg#\	8ee\	.	.	.	.	.
4F#X\	.	8gg#\	8ee\	.	.	.	.	.
.	.	8gg#\	8bb\J	8F#X\	-mi-	8cc\	-mi-	.
4G#X\	.	8ee\	8.bbt\L	4G#X\	-ni	4b\	-ni	.
.	.	8ee\J	.	.	.	.	.	.
.	.	.	32aa\LL	.	.	.	.	.
.	.	.	32bb\JJJ	.	.	.	.	.
!	!	!	!	!LO:LB:g=original	!	!	!	!
=66	=66	=66	=66	=66	=66	=66	=66	=66
4A\	.	8ee\L	8ccc\L	4A\	e-	4cc\	e-	.
.	.	8ee\	8ee\	.	.	.	.	.
8E\L	#	8gg#X\	8bb\	8E\	-jus	8b\	-ius	.
8A\	.	8ee\J	8ccc\J	8A\	in	8cc\	in	.
8F\	.	8ff\L	8aa\L	8F\L	ſae-	[4a\	ſae-	.
8A\J	.	8cc\J	8aa\J	8A\J	.	.	.	.
=67	=67	=67	=67	=67	=67	=67	=67	=67
8D\L	.	8dd/L	8ff\L	8D\L	.	4a\]	.	.
8F\J	.	8a/J	8dd\J	8F\J	.	.	.	.
4E\	6 4	2b/	8b\L	4.E\	.	4.g#X\	.	.
.	.	.	8aa\	.	.	.	.	.
4EE/	5 #	.	8b\	.	.	.	.	.
.	.	.	8gg#X\J	8E\	-cu-	8a\	-cu-	.
=68	=68	=68	=68	=68	=68	=68	=68	=68
4AA/	.	16a/LL	16a\LL	2AA/	-la.	2a\	-la.	.
.	.	16b/	16b\	.	.	.	.	.
.	.	16cc/	16cc\	.	.	.	.	.
.	.	16dd/JJ	16dd\JJ	.	.	.	.	.
!LO:TX:a:t=Solo.	!	!LO:TX:a:t=P:problem=mixed beam	!	!	!	!	!	!
8r	.	8ee\L	8ee\L	.	.	.	.	.
8F\L	.	8c/	8a\	.	.	.	.	.
8D\	6	8d/	8b\	4r	.	4r	.	.
8E\J	#	8B/J	8g#X\J	.	.	.	.	.
=69	=69	=69	=69	=69	=69	=69	=69	=69
!	!	!	!	!LO:TX:a:t=11.	!	!LO:TX:a:t=2.	!	!
!	!	!	!	!LO:N:vis=00	!	!LO:N:vis=0	!	!
8F\L	.	4c/	4a/	0.r	.	1.r	.	.
16E\L	.	.	.	.	.	.	.	.
16D\JJ	.	.	.	.	.	.	.	.
!LO:TX:a:t=P:problem=mixed beam	!	!	!	!	!	!	!	!
8C/L	6	8r	8r	.	.	.	.	.
8AA/	.	8A/L	8c/L	.	.	.	.	.
8D\	.	8B/	8d/	.	.	.	.	.
8E\J	#	8G#X/J	8B/J	.	.	.	.	.
!	!	!	!LO:LB:g=original	!	!	!	!	!
=70	=70	=70	=70	=70	=70	=70	=70	=70
4AA/	.	4A/	4c/	.	.	.	.	.
8A\L	6	4f/	8cc\L	.	.	.	.	.
8B-X\	.	.	8dd\	.	.	.	.	.
8A\	.	4c/	8cc\	.	.	.	.	.
8G\J	.	.	8b-X\J	.	.	.	.	.
=71	=71	=71	=71	=71	=71	=71	=71	=71
2F\	.	2f/	2a/	.	.	4r	.	.
.	.	.	.	.	.	4a\	Glo-	.
4G\	-	4r	4r	.	.	8b-X\	-ri-	.
.	.	.	.	.	.	8b-\	-a	.
*custos:A	*	*	*	*	*	*	*	*
!LO:LB:g=original	!	!	!	!	!	!	!	!
=72	=72	=72	=72	=72	=72	=72	=72	=72
2A\	6	4f/	4ff\	.	.	16cc\LL	Pa-	.
.	.	.	.	.	.	16b-X\	.	.
.	.	.	.	.	.	16a\	.	.
.	.	.	.	.	.	16g\JJ	.	.
.	.	8r	8r	.	.	8f/	-tri,	.
.	.	4f/	8cc\L	.	.	(8cc\	et	.
4B-X\	.	.	8dd\	.	.	4dd\)	.	.
.	.	8dd\	[8ff\J	.	.	.	.	.
!	!	!	!	!	!	!LO:LB:g=original	!	!
=73	=73	=73	=73	=73	=73	=73	=73	=73
!	!	!LO:TX:a:t=P:problem=mixed beam	!LO:TX:a:t=P:problem=mixed beam	!	!	!	!	!
!	!	!	!	!LO:N:vis=00	!	!	!	!
4A\	6	8cc\L	8ff\L]	0.r	.	8cc\L	Fi-	.
.	.	8f/J	8f/J	.	.	16b-X\L	.	.
.	.	.	.	.	.	16a\JJ	.	.
2G\	7	4f/	2b-X/	.	.	4.b-\	.	.
.	-	.	.	.	.	.	.	.
.	6	4e/	.	.	.	.	.	.
.	.	.	.	.	.	8b-\	-li-	.
!	!	!LO:LB:g=original	!	!	!	!	!	!
=74	=74	=74	=74	=74	=74	=74	=74	=74
4F\	.	16f/LL	16a/LL	.	.	4a\	-o,	.
.	.	16g/	16g/	.	.	.	.	.
.	.	16a/	16a/	.	.	.	.	.
.	.	16b-X/JJ	16b-X/JJ	.	.	.	.	.
8r	.	8cc/L	8cc/L	.	.	4r	.	.
8D/L	.	8A/	8f/	.	.	.	.	.
8BB-X/	6	8B-X/	8g/	.	.	4r	.	.
8C/J	.	8G/J	8f/J	.	.	.	.	.
=75	=75	=75	=75	=75	=75	=75	=75	=75
4FF/	.	4A/	4f/	.	.	8a\L	et	.
.	.	.	.	.	.	8bn\J	.	.
4r	.	4.f/	4a/	.	.	8cc\	Spi-	.
.	.	.	.	.	.	8dd\	-ri-	.
4F\	.	.	4f/	.	.	8ee\	-tu-	.
.	.	8e/	.	.	.	8ff\	-i	.
=76	=76	=76	=76	=76	=76	=76	=76	=76
4F\	n4 2	2d/	2g/	.	.	4.b\	San-	.
8G\L	.	.	.	.	.	.	.	.
8F\J	.	.	.	.	.	16a\LL	.	.
.	.	.	.	.	.	16b\JJ	.	.
4E\	6	4e/	4g/	.	.	4cc\	.	.
!	!	!	!LO:LB:g=original	!	!	!	!	!
=77	=77	=77	=77	=77	=77	=77	=77	=77
!	!	!	!	!LO:N:vis=0	!	!LO:N:xstem:cue	!	!
4F\	.	8c/L	8a/L	1.r	.	8cc\	.	.
.	.	8f/J	8f/J	.	.	16b\LL	.	.
.	.	.	.	.	.	16a\JJ	.	.
4G\	4	4d/	4d/	.	.	2b\	.	.
4GG/	3	4b/	4b/	.	.	.	.	.
=78	=78	=78	=78	=78	=78	=78	=78	=78
4C/	.	16cc\LL	16cc\LL	.	.	4cc\	-cto.	.
.	.	16dd\	16dd\	.	.	.	.	.
.	.	16ee\	16ee\	.	.	.	.	.
.	.	16ff\JJ	16ff\JJ	.	.	.	.	.
!	!	!LO:TX:a:t=P:problem=mixed beam	!	!	!	!	!	!
8r	.	8gg\L	8gg\L	.	.	4r	.	.
8A\L	.	8e/	8cc\	.	.	.	.	.
8F\	6	8f/	8dd\	.	.	4r	.	.
8G\J	.	8d/J	8b\J	.	.	.	.	.
=79	=79	=79	=79	=79	=79	=79	=79	=79
!	!	!	!	!	!	!LO:TX:a:t=1.	!	!
8A\L	.	4e/	4cc\	2.r	.	2.r	.	.
16G\L	.	.	.	.	.	.	.	.
16F\JJ	.	.	.	.	.	.	.	.
8E\L	6	8r	8r	.	.	.	.	.
8C\J	.	8c/L	8e/L	.	.	.	.	.
*custos:F	*	*	*	*	*	*	*	*
!LO:LB:g=original	!	!	!	!	!	!	!	!
8F\L	.	8d/	8f/	.	.	.	.	.
8G\J	.	8B/J	8d/J	.	.	.	.	.
=80	=80	=80	=80	=80	=80	=80	=80	=80
4C/	.	4c/	4e/	4r	.	4r	.	.
!LO:TX:a:t=T&colon;	!	!	!	!	!	!	!	!
4c\	.	4gg\	4ccc\	4c\	Si-	4ee\	Si-	.
4G\	.	4gg\	4bb\	4G\	-cut	4dd\	-cut	.
=81	=81	=81	=81	=81	=81	=81	=81	=81
8c\L	.	8gg\L	8ccc\L	8c\	e-	8ee\	e-	.
8c\	.	8ee\	8gg\	8c\	-rat	8ee\	-rat	.
8B\	.	8dd\	8gg\	8B\	in	8dd\	in	.
8A\	.	8cc\	8gg\	8A\	prin-	8cc\	prin-	.
8G\	.	8b\	8gg\	8G\	-ci-	8b\	-ci-	.
8F\J	.	8a\J	8gg\J	8F\	-pi-	8a\	-pi-	.
!	!	!	!	!	!	!LO:TX:b:t=P:problem=podwójny przecinek jako łamanie sylab między systemami	!	!
!	!	!	!	!	!	!LO:LB:g=original	!	!
=82	=82	=82	=82	=82	=82	=82	=82	=82
8E\L	6	8g/L	8gg\L	8E\	-o,	8g\	-o,	.
8A\J	.	8cc/	8gg\	8A\	et	8cc\	et	.
4F\	.	8a/	8aa\	4F\	nu(n)c	8a,\	nu(n)c	.
*	*	*	*	*	*	*	*ij	*
.	.	8ff/J	8aa\J	.	.	8dd\	et	.
!	!	!	!	!LO:LB:g=original	!	!	!	!
8r	.	4dd\	8r	8r	.	8b,\	nu(n)c	.
*	*	*	*	*	*ij	*	*Xij	*
8G\	.	.	8gg\	8G\	et	8b\	et	.
!	!	!LO:LB:g=original	!LO:LB:g=original	!	!	!	!	!
=83	=83	=83	=83	=83	=83	=83	=83	=83
8E\L	6	4cc\	8gg\L	8E,\	nu(n)c	(2cc\	ſem-	.
*	*	*	*	*	*Xij	*	*	*
8F\J	.	.	8aa\J	8F\	et	.	.	.
*	*	*	*2\right	*	*	*	*	*
2D/	7	4cc\	2ff\	2D/	ſem-	.	.	.
.	6	4b/	.	.	.	4b\)	.	.
=84	=84	=84	=84	=84	=84	=84	=84	=84
4C/	.	4cc\	4gg\	4C/	-per,	4cc\	-per,	.
4c\	.	4ee\	4gg\	4c\	et	4ee\	et	.
4c\	.	4ee\	4gg\	4c\	in	4ee\	in	.
=85	=85	=85	=85	=85	=85	=85	=85	=85
2c\	#4 2	4ff#X\	4aa\	4c\	ſae-	4dd\	ſae-	.
.	.	8ff#\L	8aa\L	8c\	-cu-	8dd\	-cu-	.
.	.	8ff#\	8aa\	8c\	-la	8dd\	-la	.
4B\	6	8dd\	8gg\	4B\	ſae-	4dd\	ſae-	.
.	.	8dd\J	8gg\J	.	.	.	.	.
=86	=86	=86	=86	=86	=86	=86	=86	=86
4c\	.	8ee\L	8gg\L	4c\	-cu-	4ee\	-cu-	.
.	.	8gg\J	16aa\L	.	.	.	.	.
.	.	.	16bb\JJ	.	.	.	.	.
2A\	7	4gg\	2ccc\	2A\	-lo-	2cc\	-lo-	.
.	6\	4ff#X\	.	.	.	.	.	.
*custos:G	*	*	*	*	*	*	*	*
!LO:LB:g=original	!	!	!	!	!	!	!	!
=87	=87	=87	=87	=87	=87	=87	=87	=87
!	!	!LO:TX:a:t=P:problem=mixed beam	!	!	!	!	!	!
4G\	.	8gg\L	4bb\	4G\	-rum	8b\	-rum	.
.	.	8g/J	.	.	.	8g\	a-	.
8r	.	4a/	8r	8r	.	4a\	-men	.
8C/	.	.	8ee\	8C/	a-	.	.	.
8F\L	.	8r	8aa\L	8F\L	.	8r	.	.
16E\L	.	[8a/	16gg\L	16E\L	.	[8a\	A-	.
16F\JJ	.	.	16aa\JJ	16F\JJ	.	.	.	.
=88	=88	=88	=88	=88	=88	=88	=88	=88
4D\	.	16a/LL]	4ff\	4D\	-men	16a\LL]	.	.
.	.	16b/	.	.	.	16b\	.	.
.	.	16g/	.	.	.	16g\	.	.
.	.	16a/JJ	.	.	.	16a\JJ	.	.
8r	.	4b/	8r	8r	.	4b\	-men	.
8D\	.	.	8ff\	8D\	a-	.	.	.
8G\L	.	8r	8bb\L	8G\L	.	8r	.	.
16F\L	.	[8b/	16aa\L	16F\L	.	[8b\	A-	.
16G\JJ	.	.	16bb\JJ	16G\JJ	.	.	.	.
*	*	*	*custos:gg	*custos:E	*	*	*	*
!	!	!	!LO:LB:g=original	!LO:LB:g=original	!	!	!	!
=89	=89	=89	=89	=89	=89	=89	=89	=89
4E\	.	16b/LL]	4gg\	4E\	-men	16b\LL]	.	.
.	.	16cc/	.	.	.	16cc\	.	.
.	.	16a/	.	.	.	16a\	.	.
.	.	16b/JJ	.	.	.	16b\JJ	.	.
*	*	*	*	*	*	*custos:cc	*	*
!	!	!	!	!	!	!LO:LB:g=original	!	!
8r	.	4cc\	8r	8r	.	4cc\	-men	.
*	*	*	*	*	*ij	*	*	*
8E\	.	.	8gg\	8E\	a-	.	.	.
8A\L	.	8r	8ccc\L	8A\L	.	8r	.	.
16G\L	.	[8cc\	16bb\L	16G\L	.	[8cc\	a-	.
16A\JJ	.	.	16ccc\JJ	16A\JJ	.	.	.	.
=90	=90	=90	=90	=90	=90	=90	=90	=90
4F\	.	16cc\LL]	4aa\	4F\	-men	16cc\LL]	.	.
.	.	16dd\	.	.	.	16dd\	.	.
.	.	16b\	.	.	.	16b\	.	.
.	.	16cc\JJ	.	.	.	16cc\JJ	.	.
8r	.	4dd\	8r	8r	.	4dd\	-men	.
8F\	.	.	8aa\	8F\	a-	.	.	.
!	!	!LO:LB:g=original	!	!	!	!	!	!
8B\L	.	8r	8ddd\L	8B\L	.	8r	.	.
16A\L	.	[8dd\	16ccc\L	16A\L	.	[8dd\	A-	.
16B\JJ	.	.	16ddd\JJ	16B\JJ	.	.	.	.
=91	=91	=91	=91	=91	=91	=91	=91	=91
4G\	.	16dd\LL]	4bb\	4G\	-men	16dd\LL]	.	.
*	*	*	*	*	*Xij	*	*	*
.	.	16ee\	.	.	.	16ee\	.	.
.	.	16cc\	.	.	.	16cc\	.	.
.	.	16dd\JJ	.	.	.	16dd\JJ	.	.
8r	.	16ee\LL	16r	8r	.	8ee\L	.	.
.	.	16dd\	16gg\LL	.	.	.	.	.
8G\L	.	16ee\	16gg\	8G\L	A-	8dd\	.	.
.	.	16dd\JJ	16gg\JJ	.	.	.	.	.
8c\	.	4ryy	16gg\LL	8c\	.	8ee\	.	.
.	.	.	16gg\	.	.	.	.	.
8B\J	.	.	16gg\	8B\J	.	8dd\J	.	.
.	.	.	16gg\JJ	.	.	.	.	.
=92	=92	=92	=92	=92	=92	=92	=92	=92
8c\L	.	8ee\L	16gg\LL	8c\L	.	8ee\L	.	.
.	.	.	16gg\	.	.	.	.	.
16B\L	.	16dd\L	16gg\	16B\L	.	16dd\L	.	.
16A\JJ	.	16cc\JJ	16gg\JJ	16A\JJ	.	16cc\JJ	.	.
*custos:G	*	*	*	*	*	*	*	*
!LO:LB:g=original	!	!	!	!	!	!	!	!
16G\LL	.	16b/LL	16gg\LL	16G\LL	.	8b\L	.	.
16F\	.	16a/	16gg\	16F\	.	.	.	.
16E\	.	16g/	16aa\	16E\	.	16cc\L	.	.
16D\JJ	.	16f/JJ	16bb\JJ	16D\JJ	.	16dd\JJ	.	.
!	!	!LO:TX:a:t=P:problem=mixed beam	!	!	!	!	!	!
8C\L	.	8e/L	8ccc\L	8C/L	.	8ee\L	.	.
8E\J	.	8gg\J	8ccc\J	8E/J	.	[8cc\J	.	.
=93	=93	=93	=93	=93	=93	=93	=93	=93
8A\L	.	8ee\L	8ccc\L	8A\	.	8cc\]	.	.
8F\J	.	8aa\J	8aa\J	8F,\	-men	8dd,\	-men	.
4G\	.	4ee\	4ccc\	4G\	a-	(4cc\	a-	.
4GG/	.	4dd\	4bb\	4GG/	.	4b\)	.	.
!	!	!	!	!LO:TX:b:t=P:problem=podwójny przecinek jako łamanie sylab między systemami	!	!	!	!
!	!	!	!LO:LB:g=original	!LO:LB:g=original	!	!	!	!
=94	=94	=94	=94	=94	=94	=94	=94	=94
4C/	.	4ee\	4ccc\	4C/	-men	4cc\	-men	.
4r	.	4r	4r	4r	.	4r	.	.
4G\	.	4gg\	4bb\	4G\	a-	4dd\	a-	.
=95	=95	=95	=95	=95	=95	=95	=95	=95
2C/	.	2.gg\	2.ccc\	2.C/	-men.	2.ee\	-men.	.
!	!	!	!LO:TX:b:i:t=Fine	!LO:TX:b:t=Finis.	!	!LO:TX:b:t=Finis.	!	!
4r	.	.	.	.	.	.	.	.
==;;	==	==	==	==;;	==	==;	==	==
*-	*-	*-	*-	*-	*-	*-	*-	*-
!!!system-decoration: [g1][g2]s5
!!!RDF**kern: > = above
!!!RDF**kern: < = below
!!!ENC: Marta Lawrence
!!!END: 2020-12-31
!!!ENC: Marcin Jachim
!!!END: 2020-07-02
